Yosa-Max-Dark/places/16x16/folder-home.svg

<?xml version="1.0" encoding="UTF-8"?>
<svg id="svg2" version="1.1" viewBox="0 0 16 16" xmlns="http://www.w3.org/2000/svg">
 <path id="path830" d="m8.000017 1.0000044v0.00195l-0.0098 0.00781-7.490235 6.2089844 1.070313 1.2597656 0.597656-0.4960937v7.0175793h4.332031v-5.0000009h3v5.0000009h4.333985v-7.0175737l0.597691 0.4960937 1.06836-1.2597656-2.832032-2.3496094v-3.8691406h-1.667969v2.4882812l-2.990234-2.4785156-0.0078-0.00977z" style="fill:#dfdfdf;paint-order:stroke fill markers"/>
</svg>

<?xml version="1.0" encoding="UTF-8" standalone="no"?>
<svg
   xmlns:dc="http://purl.org/dc/elements/1.1/"
   xmlns:cc="http://creativecommons.org/ns#"
   xmlns:rdf="http://www.w3.org/1999/02/22-rdf-syntax-ns#"
   xmlns:svg="http://www.w3.org/2000/svg"
   xmlns="http://www.w3.org/2000/svg"
   xmlns:sodipodi="http://sodipodi.sourceforge.net/DTD/sodipodi-0.dtd"
   xmlns:inkscape="http://www.inkscape.org/namespaces/inkscape"
   viewBox="0 0 16 16"
   version="1.1"
   id="svg2"
   height="16"
   width="16"
   sodipodi:docname="folder-home.svg"
   inkscape:version="0.92.4 (unknown)">
  <sodipodi:namedview
     pagecolor="#ffffff"
     bordercolor="#666666"
     borderopacity="1"
     objecttolerance="10"
     gridtolerance="10"
     guidetolerance="10"
     inkscape:pageopacity="0"
     inkscape:pageshadow="2"
     inkscape:window-width="1366"
     inkscape:window-height="709"
     id="namedview7"
     showgrid="false"
     inkscape:zoom="32.625"
     inkscape:cx="8"
     inkscape:cy="8"
     inkscape:window-x="0"
     inkscape:window-y="0"
     inkscape:window-maximized="1"
     inkscape:current-layer="svg2" />
  <defs
     id="defs4" />
  <metadata
     id="metadata7">
    <rdf:RDF>
      <cc:Work
         rdf:about="">
        <dc:format>image/svg+xml</dc:format>
        <dc:type
           rdf:resource="http://purl.org/dc/dcmitype/StillImage" />
        <dc:title />
      </cc:Work>
    </rdf:RDF>
  </metadata>
  <path
     style="opacity:1;vector-effect:none;fill:#dfdfdf;fill-opacity:1;stroke:none;stroke-width:2.23634315;stroke-linecap:butt;stroke-linejoin:miter;stroke-miterlimit:4;stroke-dasharray:none;stroke-dashoffset:0;stroke-opacity:1;paint-order:stroke fill markers"
     d="m 8.000017,1.0000044 v 0.00195 l -0.0098,0.00781 L 0.499982,7.2187488 1.570295,8.4785144 2.167951,7.9824207 V 13.353516 15 H 3.833966 6.499982 V 9.9999991 h 3 V 15 h 4.333985 V 13.353521 7.9824263 L 14.431658,8.47852 15.500018,7.2187544 12.667986,4.869145 V 1.0000044 H 11.000017 V 3.4882856 L 8.009783,1.00977 8.001983,1 Z"
     id="path830"
     inkscape:connector-curvature="0" />
</svg>
